X:1
T: Juniper Jig
C:C. Sherrit
R:Jig
Q:180
K:A
M:6/8
L:1/16
e2|a2g2a2 e2c2A2|F2A2d2 f2e2d2|c2e2e2 A2c2c2|B2c2d2 e2f2g2|
a2g2a2 e2c2A2|F2A2d2 f2e2d2|c2e2c2 d2B2G2|A6A4=G2|
|:F2A2d2 f2e2d2|f2e2d2 a2g2f2|e2c2A2 E2A2c2|E2A2c2 c2B2A2|
G2B2B2 E2B2B2|G2B2B2 E4B2|A2B2A2 B2A2B2|c6A2G2=G2|
F2A2d2 f2e2d2|f2e2d2 a2g2f2|e2c2A2 E2A2c2|E2A2c2 c2B2A2|
G2B2B2 E2B2B2|G2B2B2 E4f2|g2f2e2 d2c2B2|1A6A4=G2:|2A6A4||
